X:2
T:Elverumspols
Z:2008 Brian Wilson <Brian.Wilson@alumni.brown.edu>
M:3/4
L:1/8
K:D
A2
|: "D"{c}df "A"e>d cB | "A"{B}ce "D"{c}d>c BA
| "G"BA "G"{A}B>c d2 | "D"A2-"D/e"A2 "D/f#"D2
|  "G"BA "G"B>d "A"ce | "D"dc "G"B>A "D/f#"GF
|  "A/e"EF/G/ "A"(3FDF "A/c#"(3ECE | "D"D4 A2 :|
|: "D/a"F>D "A"C2 E2 | "D"F2-"D/e"F2 "D/f#"A2
| "G"BA "G"B>c ""d2 | "D"A2-"D/e"A2 "D/f#"D2
|  "G"BA "G"B>d ""ce | "D"dc "G"B>A "D/f#"GF
|  "A/e"EF/G/ "A"(3FDF "A"(3ECE | "D"{C}D4 A2 :|
P: Harmony
| F2 E2-E2 | E2 FE D2 | DC DE F2 | F4 D2
| D2 D2 E2 | F2 G2 A2 | A2 A2 G2 | F4 z2 :|
| A2 A2 A2 | A2-A2 F2 | GF G2 A2 | D4 D2
| GF G2 A2 | FE DC B,A, | A,4 G2 | F4 z2 :||
